X:1
T:The Irish
T:The Irish
%%score { 1 | 2 }
L:1/8
M:3/4
K:G
V:1 treble nm="Akkordeon" snm="Akk."
V:2 bass 
V:1
"D" DD |"Am" E2 A2 AB |"C" c3 d ec |"G" dB G3 B |"D" AF D3 D |"Am" E2 A2 AB |"C" cd e2 cA | %7
"G" dB G3 B |"D" A4 :: eg |"Am" a2 ag ea |"C" g2 e2 cd |"G" ef g2 fe |"D" dB G2 =F2 |"Am" E2 ABcd | %15
"C" e2 c3 A |"G" dB G3 G |"D" A4 :| %18
V:2
 [D,F,A,]2 | A,,2 .[E,A,C]2 [E,A,C]2 | C,2 .[E,G,C]2 [E,G,C]2 | G,,2 .[D,G,B,]2 [D,G,B,]2 | %4
 D,,2 .[D,F,A,]2 [D,F,A,]2 | A,,2 .[E,A,C]2 [E,A,C]2 | C,2 .[E,G,C]2 [E,G,C]2 | %7
 G,,2 .[D,G,B,]2 [D,G,B,]2 | D,,2 .[D,F,A,]2 :: [D,F,A,]2 | A,,2 .[E,A,C]2 [E,A,C]2 | %11
 C,2 .[E,G,C]2 [E,G,C]2 | G,,2 .[D,G,B,]2 [D,G,B,]2 | D,,2 .[D,F,A,]2 [D,F,A,]2 | %14
 A,,2 .[E,A,C]2 [E,A,C]2 | C,2 .[E,G,C]2 [E,G,C]2 | G,,2 .[D,G,B,]2 [D,G,B,]2 | D,,2 .[D,F,A,]2 :| %18

